lib/healthicons/icons/outline/symbols/yes.svg

<svg fill="none" height="48" viewBox="0 0 48 48" width="48" xmlns="http://www.w3.org/2000/svg"><g clip-rule="evenodd" fill="#333" fill-rule="evenodd"><path d="m24 42c9.9411 0 18-8.0589 18-18s-8.0589-18-18-18-18 8.0589-18 18 8.0589 18 18 18zm0 2c11.0457 0 20-8.9543 20-20s-8.9543-20-20-20-20 8.9543-20 20 8.9543 20 20 20z"/><path d="m34.6709 16.2585c.4096.3705.4412 1.0029.0706 1.4124l-13.3557 14.7616-8.0763-7.7091c-.3995-.3814-.4142-1.0144-.0329-1.4139.3814-.3995 1.0144-.4142 1.4139-.0328l6.5904 6.2908 11.9776-13.2384c.3705-.4095 1.0029-.4412 1.4124-.0706z"/></g></svg>

<svg width="48" height="48" viewBox="0 0 48 48" fill="none" xmlns="http://www.w3.org/2000/svg">
<path fill-rule="evenodd" clip-rule="evenodd" d="M24 42C33.9411 42 42 33.9411 42 24C42 14.0589 33.9411 6 24 6C14.0589 6 6 14.0589 6 24C6 33.9411 14.0589 42 24 42ZM24 44C35.0457 44 44 35.0457 44 24C44 12.9543 35.0457 4 24 4C12.9543 4 4 12.9543 4 24C4 35.0457 12.9543 44 24 44Z" fill="#333333"/>
<path fill-rule="evenodd" clip-rule="evenodd" d="M34.6709 16.2585C35.0805 16.629 35.1121 17.2614 34.7415 17.6709L21.3858 32.4325L13.3095 24.7234C12.91 24.342 12.8953 23.709 13.2766 23.3095C13.658 22.91 14.291 22.8953 14.6905 23.2767L21.2809 29.5675L33.2585 16.3291C33.629 15.9196 34.2614 15.8879 34.6709 16.2585Z" fill="#333333"/>
</svg>
